X: 1
T: Ned Of The Water
M: 6/8
L: 1/8
R: jig
K: Gmaj
|:GDE G2A|BGe d2e|dBB BAB|GAB A2B|
D2E G2A|BGe d2e|dBA G2A|1 BGG G3:|2 BGG G2d||
|:e2e edB|e2e edB|ded dBA|Bde d2c|
BDE G2A|Bge d2e|dBA G2A|1 BGG G2d:|2 BGG G3|]
